X:10
T:Calliope House
C:D Richardson
N:Calliope House is a folk center in Pittsburgh.
Z:John Chambers <jc@trillian.mit.edu>
R:reel
M:6/8
L:1/8
K:D
A | dAA fAA | eAA fAA | Bee e2d | efd BdB |
ABA A2F | A2B d2e |1 faf fed | e3- ez :|2 faf edB | d3- d |:
fg | a3 faa | eaa daa | g3 fgf | efe edB |
ABA A2F | A2B d2e |1 faf fed | e3- e :|2 faf edB | d3- d |]
